X:1646
R:Visa
B:August Bondesons Visbok nr 1
Z:[[Profiles/Tommy Rådberg]]
T:Du Sveaborg, du är befäst
M:2/4
L:1/16
K:G
D2|G2B2 A2B2|G2GB F2D2|G2B2 (3A2G2A2|B6B2|d3c B2A2|B2BA B2D2|G2B2 (3A2G2A2|B6B2|d3c B2A2|B2BA B4|AGFG ABcB|A6D2|G2B2 (3d2c2A2|G4 GBdB|G4z2|]
(:musicend:)
(:music:)
